pria.svg

<svg xmlns="http://www.w3.org/2000/svg" width="103" height="94" fill="none" xmlns:v="https://vecta.io/nano"><rect x=".25" y=".25" width="102.5" height="93.5" rx="6.75" stroke="#dbdbdb" stroke-width=".5"/><path d="M41.508 74.727c.486 0 .912-.063 1.278-.189.372-.126.681-.303.927-.531.252-.234.441-.51.567-.828.126-.324.189-.681.189-1.071 0-.786-.246-1.404-.738-1.854-.486-.45-1.227-.675-2.223-.675H39.51v5.148h1.998zm0-6.651c.828 0 1.548.096 2.16.288s1.119.465 1.521.819c.402.348.699.771.891 1.269.198.498.297 1.05.297 1.656s-.105 1.164-.315 1.674c-.21.504-.519.939-.927 1.305s-.918.651-1.53.855c-.606.198-1.305.297-2.097.297H39.51V81h-1.917V68.076h3.915zm8.1212 5.535c.294-.6.648-1.071 1.062-1.413s.912-.513 1.494-.513c.198 0 .384.024.558.072.18.042.336.108.468.198l-.117 1.323c-.042.162-.141.243-.297.243-.084 0-.21-.015-.378-.045-.168-.036-.348-.054-.54-.054-.282 0-.531.042-.747.126-.216.078-.411.198-.585.36-.168.156-.318.351-.45.585-.132.228-.255.489-.369.783V81h-1.755v-9.144h1.008c.192 0 .321.036.387.108.072.066.123.186.153.36l.108 1.287zm6.7718-1.755V81h-1.755v-9.144h1.755zm.333-2.826c0 .162-.033.318-.099.468-.066.144-.156.273-.27.387-.108.108-.237.195-.387.261-.15.06-.306.09-.468.09s-.315-.03-.459-.09c-.144-.066-.273-.153-.387-.261-.108-.114-.195-.243-.261-.387-.06-.15-.09-.306-.09-.468 0-.168.03-.324.09-.468.066-.15.153-.279.261-.387.114-.114.243-.201.387-.261.144-.066.297-.099.459-.099s.318.033.468.099c.15.06.279.147.387.261.114.108.204.237.27.387.066.144.099.3.099.468zm7.122 7.911c-.714.024-1.32.081-1.818.171-.498.084-.903.198-1.215.342s-.537.315-.675.513c-.138.192-.207.408-.207.648 0 .228.036.426.108.594.078.162.18.297.306.405.132.102.285.177.459.225s.363.072.567.072c.27 0 .516-.027.738-.081.228-.054.441-.129.639-.225.198-.102.387-.225.567-.369s.357-.309.531-.495v-1.8zm-5.148-3.807c.51-.486 1.062-.849 1.656-1.089.6-.24 1.257-.36 1.971-.36.522 0 .984.087 1.386.261.402.168.741.405 1.017.711s.483.672.621 1.098c.144.426.216.897.216 1.413V81h-.783c-.174 0-.306-.027-.396-.081-.09-.06-.162-.168-.216-.324l-.189-.801c-.234.216-.465.408-.693.576-.228.162-.468.303-.72.423-.246.114-.51.201-.792.261s-.594.09-.936.09c-.36 0-.699-.048-1.017-.144-.312-.102-.585-.255-.819-.459s-.42-.459-.558-.765c-.132-.306-.198-.663-.198-1.071 0-.36.096-.705.288-1.035.198-.336.516-.636.954-.9.444-.264 1.02-.48 1.728-.648.714-.168 1.59-.264 2.628-.288v-.666c0-.69-.147-1.206-.441-1.548s-.726-.513-1.296-.513c-.384 0-.708.048-.972.144-.258.096-.483.204-.675.324l-.495.315c-.138.096-.282.144-.432.144-.12 0-.225-.033-.315-.099-.084-.066-.153-.144-.207-.234l-.315-.567z" fill="#161616"/><g clip-path="url(#A)"><path d="M54.7376 32.911v-8.7607c1.185.5063 2.6154.2852 3.5845-.6659.6334-.6216.949-1.4341.949-2.2478s-.3156-1.6273-.949-2.2478l-5.5938-5.4874c-.6785-.667-1.7793-.667-2.4577 0L44.6767 18.99c-1.2645 1.2397-1.2645 3.2524 0 4.4944.6322.6205 1.4601.9301 2.2881.9301.4424 0 .8825-.0885 1.2952-.2642v8.7607C41.2558 34.3719 36 40.4786 36 47.7889c0 8.401 6.939 15.2108 15.4994 15.2108s15.4994-6.8098 15.4994-15.2108C67 40.4786 61.743 34.3719 54.7376 32.911zm-3.2382 24.0821c-5.1811 0-9.3801-4.1207-9.3801-9.2042s4.199-9.2054 9.3801-9.2054 9.3789 4.1208 9.3789 9.2054-4.199 9.2042-9.3789 9.2042z" fill="#62dbfb"/><g fill="#01d0fb"><path d="M53.1351 17.0183l-3.3319-3.0603.4686-.4587c.6784-.667 1.7792-.667 2.4577 0l5.5938 5.4898c.6334.6204.949 1.4341.949 2.2478s-.3156 1.6262-.949 2.2478c-.9691.951-2.3984 1.1722-3.5845.6658v8.7235l-1.077-.1059c-.7698-.0512-1.3724-.6705-1.3724-1.4283v-7.535c0-.7438.5551-1.3829 1.3071-1.4807 1.1103-.1443 2.0995-1.2781 1.9406-2.5598-.0819-.6693-.6975-1.0476-1.1767-1.5133l-1.2253-1.2327zm3.5371 16.4282c4.8383 2.5726 8.1239 7.599 8.1239 13.3797 0 8.4011-6.9401 15.2109-15.4994 15.2109-1.8148 0-3.5572-.3062-5.1763-.8684 2.1943 1.1675 4.7078 1.831 7.3802 1.831C60.0598 62.9997 67 56.19 67 47.7889c0-6.6212-4.3117-12.2529-10.3278-14.3424z"/></g></g><defs><clipPath id="A"><path fill="#fff" transform="translate(36 13)" d="M0 0h31v50H0z"/></clipPath></defs></svg>

<svg width="103" height="94" viewBox="0 0 103 94" fill="none" xmlns="http://www.w3.org/2000/svg">
<rect x="0.25" y="0.25" width="102.5" height="93.5" rx="6.75" stroke="#DBDBDB" stroke-width="0.5"/>
<path d="M41.508 74.727C41.994 74.727 42.42 74.664 42.786 74.538C43.158 74.412 43.467 74.235 43.713 74.007C43.965 73.773 44.154 73.497 44.28 73.179C44.406 72.855 44.469 72.498 44.469 72.108C44.469 71.322 44.223 70.704 43.731 70.254C43.245 69.804 42.504 69.579 41.508 69.579H39.51V74.727H41.508ZM41.508 68.076C42.336 68.076 43.056 68.172 43.668 68.364C44.28 68.556 44.787 68.829 45.189 69.183C45.591 69.531 45.888 69.954 46.08 70.452C46.278 70.95 46.377 71.502 46.377 72.108C46.377 72.714 46.272 73.272 46.062 73.782C45.852 74.286 45.543 74.721 45.135 75.087C44.727 75.453 44.217 75.738 43.605 75.942C42.999 76.14 42.3 76.239 41.508 76.239H39.51V81H37.593V68.076H41.508ZM49.6292 73.611C49.9232 73.011 50.2772 72.54 50.6912 72.198C51.1052 71.856 51.6032 71.685 52.1852 71.685C52.3832 71.685 52.5692 71.709 52.7432 71.757C52.9232 71.799 53.0792 71.865 53.2112 71.955L53.0942 73.278C53.0522 73.44 52.9532 73.521 52.7972 73.521C52.7132 73.521 52.5872 73.506 52.4192 73.476C52.2512 73.44 52.0712 73.422 51.8792 73.422C51.5972 73.422 51.3482 73.464 51.1322 73.548C50.9162 73.626 50.7212 73.746 50.5472 73.908C50.3792 74.064 50.2292 74.259 50.0972 74.493C49.9652 74.721 49.8422 74.982 49.7282 75.276V81H47.9732V71.856H48.9812C49.1732 71.856 49.3022 71.892 49.3682 71.964C49.4402 72.03 49.4912 72.15 49.5212 72.324L49.6292 73.611ZM56.401 71.856V81H54.646V71.856H56.401ZM56.734 69.03C56.734 69.192 56.701 69.348 56.635 69.498C56.569 69.642 56.479 69.771 56.365 69.885C56.257 69.993 56.128 70.08 55.978 70.146C55.828 70.206 55.672 70.236 55.51 70.236C55.348 70.236 55.195 70.206 55.051 70.146C54.907 70.08 54.778 69.993 54.664 69.885C54.556 69.771 54.469 69.642 54.403 69.498C54.343 69.348 54.313 69.192 54.313 69.03C54.313 68.862 54.343 68.706 54.403 68.562C54.469 68.412 54.556 68.283 54.664 68.175C54.778 68.061 54.907 67.974 55.051 67.914C55.195 67.848 55.348 67.815 55.51 67.815C55.672 67.815 55.828 67.848 55.978 67.914C56.128 67.974 56.257 68.061 56.365 68.175C56.479 68.283 56.569 68.412 56.635 68.562C56.701 68.706 56.734 68.862 56.734 69.03ZM63.856 76.941C63.142 76.965 62.536 77.022 62.038 77.112C61.54 77.196 61.135 77.31 60.823 77.454C60.511 77.598 60.286 77.769 60.148 77.967C60.01 78.159 59.941 78.375 59.941 78.615C59.941 78.843 59.977 79.041 60.049 79.209C60.127 79.371 60.229 79.506 60.355 79.614C60.487 79.716 60.64 79.791 60.814 79.839C60.988 79.887 61.177 79.911 61.381 79.911C61.651 79.911 61.897 79.884 62.119 79.83C62.347 79.776 62.56 79.701 62.758 79.605C62.956 79.503 63.145 79.38 63.325 79.236C63.505 79.092 63.682 78.927 63.856 78.741V76.941ZM58.708 73.134C59.218 72.648 59.77 72.285 60.364 72.045C60.964 71.805 61.621 71.685 62.335 71.685C62.857 71.685 63.319 71.772 63.721 71.946C64.123 72.114 64.462 72.351 64.738 72.657C65.014 72.963 65.221 73.329 65.359 73.755C65.503 74.181 65.575 74.652 65.575 75.168V81H64.792C64.618 81 64.486 80.973 64.396 80.919C64.306 80.859 64.234 80.751 64.18 80.595L63.991 79.794C63.757 80.01 63.526 80.202 63.298 80.37C63.07 80.532 62.83 80.673 62.578 80.793C62.332 80.907 62.068 80.994 61.786 81.054C61.504 81.114 61.192 81.144 60.85 81.144C60.49 81.144 60.151 81.096 59.833 81C59.521 80.898 59.248 80.745 59.014 80.541C58.78 80.337 58.594 80.082 58.456 79.776C58.324 79.47 58.258 79.113 58.258 78.705C58.258 78.345 58.354 78 58.546 77.67C58.744 77.334 59.062 77.034 59.5 76.77C59.944 76.506 60.52 76.29 61.228 76.122C61.942 75.954 62.818 75.858 63.856 75.834V75.168C63.856 74.478 63.709 73.962 63.415 73.62C63.121 73.278 62.689 73.107 62.119 73.107C61.735 73.107 61.411 73.155 61.147 73.251C60.889 73.347 60.664 73.455 60.472 73.575C60.286 73.689 60.121 73.794 59.977 73.89C59.839 73.986 59.695 74.034 59.545 74.034C59.425 74.034 59.32 74.001 59.23 73.935C59.146 73.869 59.077 73.791 59.023 73.701L58.708 73.134Z" fill="#161616"/>
<g clip-path="url(#clip0)">
<path d="M54.7376 32.911V24.1503C55.9226 24.6566 57.353 24.4355 58.3221 23.4844C58.9555 22.8628 59.2711 22.0503 59.2711 21.2366C59.2711 20.4229 58.9555 19.6093 58.3221 18.9888L52.7283 13.5014C52.0498 12.8344 50.949 12.8344 50.2706 13.5014L44.6767 18.99C43.4122 20.2297 43.4122 22.2424 44.6767 23.4844C45.3089 24.1049 46.1368 24.4145 46.9648 24.4145C47.4072 24.4145 47.8473 24.326 48.26 24.1503V32.911C41.2558 34.3719 36 40.4786 36 47.7889C36 56.1899 42.939 62.9997 51.4994 62.9997C60.0587 62.9997 66.9988 56.1899 66.9988 47.7889C67 40.4786 61.743 34.3719 54.7376 32.911ZM51.4994 56.9931C46.3183 56.9931 42.1193 52.8724 42.1193 47.7889C42.1193 42.7043 46.3183 38.5835 51.4994 38.5835C56.6793 38.5835 60.8783 42.7043 60.8783 47.7889C60.8783 52.8724 56.6793 56.9931 51.4994 56.9931Z" fill="#62DBFB"/>
<path d="M53.1351 17.0183C52.0747 15.9765 50.8636 14.9987 49.8032 13.958L50.2718 13.4993C50.9502 12.8323 52.051 12.8323 52.7295 13.4993L58.3233 18.9891C58.9567 19.6095 59.2723 20.4232 59.2723 21.2369C59.2723 22.0505 58.9567 22.8631 58.3233 23.4847C57.3542 24.4357 55.9249 24.6569 54.7388 24.1505V32.874C54.3853 32.8274 54.0259 32.7925 53.6618 32.7681C52.892 32.7169 52.2894 32.0976 52.2894 31.3398V23.8048C52.2894 23.061 52.8445 22.4219 53.5965 22.3241C54.7068 22.1798 55.696 21.046 55.5371 19.7643C55.4552 19.095 54.8396 18.7167 54.3604 18.251C53.95 17.8518 53.5432 17.4187 53.1351 17.0183Z" fill="#01D0FB"/>
<path d="M56.6722 33.4465C61.5105 36.0191 64.7961 41.0455 64.7961 46.8262C64.7961 55.2273 57.856 62.0371 49.2967 62.0371C47.4819 62.0371 45.7395 61.7309 44.1204 61.1687C46.3147 62.3362 48.8282 62.9997 51.5006 62.9997C60.0598 62.9997 67 56.19 67 47.7889C67 41.1677 62.6883 35.536 56.6722 33.4465Z" fill="#01D0FB"/>
</g>
<defs>
<clipPath id="clip0">
<rect width="31" height="50" fill="white" transform="translate(36 13)"/>
</clipPath>
</defs>
</svg>
